assets/svg/cart-black.svg

<svg height="28" viewBox="0 0 28 28" width="28" xmlns="http://www.w3.org/2000/svg"><path d="m1358 84h-4v-.28125c0-4.28125-3.4375-7.71875-7.71875-7.71875h-.5c-4.28125 0-7.78125 3.4375-7.78125 7.71875v.28125h-4l-2 20h28zm-18-.28125c0-3.16875 2.6125-5.71875 5.78125-5.71875h.46875.03125c3.16875 0 5.71875 2.55 5.71875 5.71875v.28125h-12zm-5.7625 18.28125 1.55625-16h2.20625v2.26875c-.6.34375-1 .99375-1 1.73125 0 1.10625.89375 2 2 2s2-.89375 2-2c0-.7375-.4-1.3875-1-1.73125v-2.26875h12v2.26875c-.6.34375-1 .99375-1 1.73125 0 1.10625.89375 2 2 2s2-.89375 2-2c0-.7375-.4-1.3875-1-1.73125v-2.26875h2.2125l1.55625 16z" fill="#111" transform="translate(-1332 -76)"/></svg>

<?xml version="1.0" encoding="UTF-8"?>
<svg width="28px" height="28px" viewBox="0 0 28 28" version="1.1" xmlns="http://www.w3.org/2000/svg" xmlns:xlink="http://www.w3.org/1999/xlink">
    <!-- Generator: Sketch 48.2 (47327) - http://www.bohemiancoding.com/sketch -->
    <title>Shape</title>
    <desc>Created with Sketch.</desc>
    <defs></defs>
    <g id="Header-Desktop" stroke="none" stroke-width="1" fill="none" fill-rule="evenodd" transform="translate(-1332.000000, -76.000000)">
        <path d="M1358,84 L1354,84 L1354,83.71875 C1354,79.4375 1350.5625,76 1346.28125,76 L1345.78125,76 C1341.5,76 1338,79.4375 1338,83.71875 L1338,84 L1334,84 L1332,104 L1360,104 L1358,84 Z M1340,83.71875 C1340,80.55 1342.6125,78 1345.78125,78 L1346.25,78 L1346.28125,78 C1349.45,78 1352,80.55 1352,83.71875 L1352,84 L1340,84 L1340,83.71875 Z M1334.2375,102 L1335.79375,86 L1338,86 L1338,88.26875 C1337.4,88.6125 1337,89.2625 1337,90 C1337,91.10625 1337.89375,92 1339,92 C1340.10625,92 1341,91.10625 1341,90 C1341,89.2625 1340.6,88.6125 1340,88.26875 L1340,86 L1352,86 L1352,88.26875 C1351.4,88.6125 1351,89.2625 1351,90 C1351,91.10625 1351.89375,92 1353,92 C1354.10625,92 1355,91.10625 1355,90 C1355,89.2625 1354.6,88.6125 1354,88.26875 L1354,86 L1356.2125,86 L1357.76875,102 L1334.2375,102 Z" id="Shape" fill="#111111" fill-rule="nonzero"></path>
    </g>
</svg>
